; G-Code generated by Simplify3D(R) Version 4.1.2
; Aug 25, 2020 at 1:39:12 PM
; Settings Summary
;   processName,Process1
;   applyToModels,LoadCellTester,LoadCellTester(2)
;   profileName,Wanhao Duplicator 6 - High Strength - LinAdvance - v4 (modified)
;   profileVersion,2020-06-07 16:07:14
;   baseProfile,Default
;   printMaterial,PLA
;   printQuality,Medium
;   printExtruders,
;   extruderName,Primary Extruder
;   extruderToolheadNumber,0
;   extruderDiameter,0.4
;   extruderAutoWidth,1
;   extruderWidth,0.48
;   extrusionMultiplier,0.95
;   extruderUseRetract,1
;   extruderRetractionDistance,2
;   extruderExtraRestartDistance,0
;   extruderRetractionZLift,0
;   extruderRetractionSpeed,3600
;   extruderUseCoasting,0
;   extruderCoastingDistance,0.2
;   extruderUseWipe,1
;   extruderWipeDistance,0.5
;   primaryExtruder,0
;   layerHeight,0.2
;   topSolidLayers,3
;   bottomSolidLayers,3
;   perimeterOutlines,3
;   printPerimetersInsideOut,1
;   startPointOption,2
;   startPointOriginX,0
;   startPointOriginY,0
;   sequentialIslands,0
;   spiralVaseMode,0
;   firstLayerHeightPercentage,75
;   firstLayerWidthPercentage,100
;   firstLayerUnderspeed,0.5
;   useRaft,0
;   raftExtruder,0
;   raftTopLayers,3
;   raftBaseLayers,2
;   raftOffset,3
;   raftSeparationDistance,0.14
;   raftTopInfill,100
;   aboveRaftSpeedMultiplier,0.3
;   useSkirt,1
;   skirtExtruder,0
;   skirtLayers,1
;   skirtOutlines,2
;   skirtOffset,4
;   usePrimePillar,0
;   primePillarExtruder,999
;   primePillarWidth,12
;   primePillarLocation,7
;   primePillarSpeedMultiplier,1
;   useOozeShield,0
;   oozeShieldExtruder,999
;   oozeShieldOffset,2
;   oozeShieldOutlines,1
;   oozeShieldSidewallShape,1
;   oozeShieldSidewallAngle,30
;   oozeShieldSpeedMultiplier,1
;   infillExtruder,0
;   internalInfillPattern,Rectilinear
;   externalInfillPattern,Rectilinear
;   infillPercentage,20
;   outlineOverlapPercentage,40
;   infillExtrusionWidthPercentage,125
;   minInfillLength,5
;   infillLayerInterval,1
;   internalInfillAngles,45,-45
;   overlapInternalInfillAngles,0
;   externalInfillAngles,45,-45
;   generateSupport,0
;   supportExtruder,0
;   supportInfillPercentage,30
;   supportExtraInflation,0
;   supportBaseLayers,1
;   denseSupportExtruder,0
;   denseSupportLayers,0
;   denseSupportInfillPercentage,70
;   supportLayerInterval,1
;   supportHorizontalPartOffset,0.3
;   supportUpperSeparationLayers,1
;   supportLowerSeparationLayers,1
;   supportType,0
;   supportGridSpacing,4
;   maxOverhangAngle,45
;   supportAngles,0
;   temperatureName,Primary Extruder,Build Plate
;   temperatureNumber,0,1
;   temperatureSetpointCount,1,2
;   temperatureSetpointLayers,1,1,2
;   temperatureSetpointTemperatures,205,60,55
;   temperatureStabilizeAtStartup,1,1
;   temperatureHeatedBed,0,1
;   fanLayers,1,2,3
;   fanSpeeds,0,25,50
;   blipFanToFullPower,0
;   adjustSpeedForCooling,1
;   minSpeedLayerTime,15
;   minCoolingSpeedSlowdown,20
;   increaseFanForCooling,0
;   minFanLayerTime,45
;   maxCoolingFanSpeed,100
;   increaseFanForBridging,0
;   bridgingFanSpeed,100
;   use5D,1
;   relativeEdistances,0
;   allowEaxisZeroing,1
;   independentExtruderAxes,0
;   includeM10123,0
;   stickySupport,1
;   applyToolheadOffsets,0
;   gcodeXoffset,0
;   gcodeYoffset,0
;   gcodeZoffset,0
;   overrideMachineDefinition,0
;   machineTypeOverride,0
;   strokeXoverride,200
;   strokeYoverride,200
;   strokeZoverride,200
;   originOffsetXoverride,0
;   originOffsetYoverride,0
;   originOffsetZoverride,0
;   homeXdirOverride,-1
;   homeYdirOverride,-1
;   homeZdirOverride,-1
;   flipXoverride,1
;   flipYoverride,-1
;   flipZoverride,1
;   toolheadOffsets,0,0|0,0|0,0|0,0|0,0|0,0
;   overrideFirmwareConfiguration,0
;   firmwareTypeOverride,RepRap (Marlin/Repetier/Sprinter)
;   GPXconfigOverride,r2
;   baudRateOverride,115200
;   overridePrinterModels,0
;   printerModelsOverride
;   startingGcode,; Duplicator 6 / Monoprice Maker Ultimate Start Script V3,M107 ; start with the fan off,G28 ; home,G29 ; Auto Bed Level,G1 Z15 F3600 ; move the platform 15mm down from home,G0 X0 Y0 ; Rapid move X0 Y0,G92 E0 ; zero the extruded length,G1 X8.0 Z0.0 F3600,G1 X10.0 Z0.2 F3600,G1 X50 Z0.4 E9.0 F1000 ; prime,G1 X100.0 E33 F1000 ; prime,G1 X110 Z0.2 F9000 ; pull away wipe,G1 X120 F9000     ; finish wipe,G1 Z2 F1000 ; lift head before first move,G92 E0 ; zero extruder again,M117 Printing...
;   layerChangeGcode,
;   retractionGcode,
;   toolChangeGcode,
;   endingGcode,M107 ; fan off,M104 S0,M140 S0,G91 ; relative movements,G1 Z30 F3600,G90 : back to absolute movement,G92 E1,G1 E-1 F300,G28 X0 Y0,M84
;   exportFileFormat,gcode
;   celebration,0
;   celebrationSong,Funky Town
;   postProcessing,
;   defaultSpeed,3000
;   outlineUnderspeed,0.5
;   solidInfillUnderspeed,0.8
;   supportUnderspeed,0.8
;   rapidXYspeed,4800
;   rapidZspeed,1002
;   minBridgingArea,50
;   bridgingExtraInflation,0
;   bridgingExtrusionMultiplier,1
;   bridgingSpeedMultiplier,1
;   useFixedBridgingAngle,0
;   fixedBridgingAngle,0
;   applyBridgingToPerimeters,0
;   filamentDiameters,1.75|1.75|1.75|1.75|1.75|1.75
;   filamentPricesPerKg,30|46|46|46|46|46
;   filamentDensities,1.25|1.25|1.25|1.25|1.25|1.25
;   useMinPrintHeight,0
;   minPrintHeight,0
;   useMaxPrintHeight,0
;   maxPrintHeight,0
;   useDiaphragm,0
;   diaphragmLayerInterval,20
;   robustSlicing,1
;   mergeAllIntoSolid,0
;   onlyRetractWhenCrossingOutline,1
;   retractBetweenLayers,1
;   useRetractionMinTravel,0
;   retractionMinTravel,3
;   retractWhileWiping,0
;   onlyWipeOutlines,1
;   avoidCrossingOutline,0
;   maxMovementDetourFactor,3
;   toolChangeRetractionDistance,12
;   toolChangeExtraRestartDistance,-0.5
;   toolChangeRetractionSpeed,600
;   externalThinWallType,0
;   internalThinWallType,2
;   thinWallAllowedOverlapPercentage,10
;   singleExtrusionMinLength,1
;   singleExtrusionMinPrintingWidthPercentage,50
;   singleExtrusionMaxPrintingWidthPercentage,200
;   singleExtrusionEndpointExtension,0.2
;   horizontalSizeCompensation,0
G90
M82
M106 S0
M140 S60
M190 S60
M104 S205 T0
M109 S205 T0
; Duplicator 6 / Monoprice Maker Ultimate Start Script V3
M107 ; start with the fan off
G28 ; home
G29 ; Auto Bed Level
G1 Z15 F3600 ; move the platform 15mm down from home
G0 X0 Y0 ; Rapid move X0 Y0
G92 E0 ; zero the extruded length
G1 X8.0 Z0.0 F3600
G1 X10.0 Z0.2 F3600
G1 X50 Z0.4 E9.0 F1000 ; prime
G1 X100.0 E33 F1000 ; prime
G1 X110 Z0.2 F9000 ; pull away wipe
G1 X120 F9000     ; finish wipe
G1 Z2 F1000 ; lift head before first move
G92 E0 ; zero extruder again
M117 Printing...
; process Process1
; layer 1, Z = 0.150
T0
G92 E0.0000
G1 E-2.0000 F3600
; feature skirt
; tool H0.150 W0.480
G1 Z0.150 F1002
G1 X43.328 Y62.832 F4800
G1 E0.0000 F3600
G92 E0.0000
G1 X43.439 Y62.754 E0.0039 F1500
G1 X44.997 Y61.726 E0.0569
G1 X45.117 Y61.651 E0.0610
G1 X46.794 Y60.683 E0.1160
G1 X46.918 Y60.616 E0.1200
G1 X48.650 Y59.750 E0.1751
G1 X48.778 Y59.691 E0.1791
G1 X50.558 Y58.930 E0.2342
G1 X50.690 Y58.878 E0.2382
G1 X52.513 Y58.225 E0.2932
G1 X52.647 Y58.182 E0.2973
G1 X54.505 Y57.639 E0.3523
G1 X54.642 Y57.603 E0.3563
G1 X56.530 Y57.172 E0.4114
G1 X56.668 Y57.145 E0.4154
G1 X58.578 Y56.828 E0.4705
G1 X58.718 Y56.809 E0.4745
G1 X60.644 Y56.607 E0.5295
G1 X60.785 Y56.596 E0.5336
G1 X62.719 Y56.509 E0.5886
G1 X62.860 Y56.507 E0.5926
G1 X64.796 Y56.536 E0.6477
G1 X64.937 Y56.542 E0.6517
G1 X66.868 Y56.687 E0.7068
G1 X67.008 Y56.702 E0.7108
G1 X68.927 Y56.962 E0.7659
G1 X69.066 Y56.985 E0.7699
G1 X70.966 Y57.359 E0.8249
G1 X71.104 Y57.390 E0.8289
G1 X72.977 Y57.878 E0.8840
G1 X73.113 Y57.917 E0.8880
G1 X74.954 Y58.515 E0.9431
G1 X75.087 Y58.563 E0.9471
G1 X76.890 Y59.270 E1.0022
G1 X77.019 Y59.326 E1.0062
G1 X78.776 Y60.140 E1.0612
G1 X78.903 Y60.203 E1.0652
G1 X80.608 Y61.120 E1.1203
G1 X80.730 Y61.191 E1.1243
G1 X82.377 Y62.209 E1.1794
G1 X82.495 Y62.287 E1.1834
G1 X84.078 Y63.401 E1.2385
G1 X84.191 Y63.486 E1.2425
G1 X85.705 Y64.693 E1.2975
G1 X85.813 Y64.784 E1.3015
G1 X87.251 Y66.080 E1.3566
G1 X87.354 Y66.178 E1.3606
G1 X88.712 Y67.557 E1.4157
G1 X88.808 Y67.660 E1.4197
G1 X90.082 Y69.118 E1.4748
G1 X90.172 Y69.228 E1.4788
G1 X91.356 Y70.759 E1.5338
G1 X91.439 Y70.873 E1.5379
G1 X92.530 Y72.473 E1.5929
G1 X92.606 Y72.592 E1.5969
G1 X93.599 Y74.254 E1.6520
G1 X93.668 Y74.378 E1.6560
G1 X94.560 Y76.096 E1.7111
G1 X94.621 Y76.223 E1.7151
G1 X95.409 Y77.992 E1.7701
G1 X95.462 Y78.123 E1.7742
G1 X96.142 Y79.936 E1.8292
G1 X96.188 Y80.069 E1.8332
G1 X96.303 Y80.442 E1.8443
G1 X96.764 Y79.091 E1.8849
G1 X96.814 Y78.958 E1.8889
G1 X97.548 Y77.167 E1.9440
G1 X97.606 Y77.038 E1.9480
G1 X98.446 Y75.293 E2.0031
G1 X98.511 Y75.168 E2.0071
G1 X99.454 Y73.477 E2.0621
G1 X99.526 Y73.356 E2.0662
G1 X100.569 Y71.724 E2.1212
G1 X100.648 Y71.607 E2.1252
G1 X101.786 Y70.041 E2.1803
G1 X101.873 Y69.929 E2.1843
G1 X103.102 Y68.434 E2.2394
G1 X103.195 Y68.327 E2.2434
G1 X104.512 Y66.908 E2.2985
G1 X104.611 Y66.807 E2.3025
G1 X106.011 Y65.469 E2.3575
G1 X106.116 Y65.375 E2.3615
G1 X107.594 Y64.121 E2.4167
G1 X107.709 Y64.030 E2.4208
G1 X109.315 Y62.832 E2.4778
G1 X109.426 Y62.754 E2.4817
G1 X110.984 Y61.726 E2.5347
G1 X111.104 Y61.651 E2.5388
G1 X112.780 Y60.683 E2.5938
G1 X112.905 Y60.616 E2.5978
G1 X114.636 Y59.750 E2.6529
G1 X114.765 Y59.691 E2.6569
G1 X116.545 Y58.930 E2.7120
G1 X116.676 Y58.878 E2.7160
G1 X118.499 Y58.225 E2.7711
G1 X118.633 Y58.182 E2.7751
G1 X120.492 Y57.639 E2.8301
G1 X120.629 Y57.603 E2.8341
G1 X122.516 Y57.172 E2.8892
G1 X122.655 Y57.145 E2.8932
G1 X124.565 Y56.828 E2.9483
G1 X124.705 Y56.809 E2.9523
G1 X126.630 Y56.607 E3.0074
G1 X126.771 Y56.596 E3.0114
G1 X128.705 Y56.509 E3.0664
G1 X128.847 Y56.507 E3.0704
G1 X130.783 Y56.536 E3.1255
G1 X130.924 Y56.542 E3.1295
G1 X132.854 Y56.687 E3.1846
G1 X132.995 Y56.702 E3.1886
G1 X134.913 Y56.962 E3.2437
G1 X135.053 Y56.985 E3.2477
G1 X136.952 Y57.359 E3.3027
G1 X137.090 Y57.390 E3.3068
G1 X138.964 Y57.878 E3.3618
G1 X139.100 Y57.917 E3.3658
G1 X140.941 Y58.515 E3.4209
G1 X141.074 Y58.563 E3.4249
G1 X142.876 Y59.270 E3.4800
G1 X143.006 Y59.326 E3.4840
G1 X144.763 Y60.140 E3.5390
G1 X144.889 Y60.203 E3.5431
G1 X146.594 Y61.120 E3.5981
G1 X146.716 Y61.191 E3.6021
G1 X148.364 Y62.209 E3.6572
G1 X148.481 Y62.287 E3.6612
G1 X150.065 Y63.401 E3.7163
G1 X150.178 Y63.486 E3.7203
G1 X151.691 Y64.693 E3.7753
G1 X151.799 Y64.784 E3.7794
G1 X153.238 Y66.080 E3.8344
G1 X153.340 Y66.178 E3.8384
G1 X154.699 Y67.557 E3.8935
G1 X154.795 Y67.660 E3.8975
G1 X156.069 Y69.118 E3.9526
G1 X156.158 Y69.228 E3.9566
G1 X157.343 Y70.759 E4.0116
G1 X157.426 Y70.873 E4.0157
G1 X158.517 Y72.473 E4.0707
G1 X158.593 Y72.592 E4.0747
G1 X159.586 Y74.254 E4.1298
G1 X159.654 Y74.378 E4.1338
G1 X160.546 Y76.096 E4.1889
G1 X160.608 Y76.223 E4.1929
G1 X161.395 Y77.992 E4.2479
G1 X161.449 Y78.123 E4.2520
G1 X162.129 Y79.936 E4.3070
G1 X162.175 Y80.069 E4.3110
G1 X162.745 Y81.919 E4.3661
G1 X162.783 Y82.055 E4.3701
G1 X163.242 Y83.936 E4.4252
G1 X163.271 Y84.075 E4.4292
G1 X163.617 Y85.980 E4.4842
G1 X163.638 Y86.119 E4.4883
G1 X163.869 Y88.042 E4.5433
G1 X163.882 Y88.182 E4.5473
G1 X163.998 Y90.115 E4.6024
G1 X164.002 Y90.256 E4.6064
G1 X164.002 Y92.192 E4.6615
G1 X163.998 Y92.333 E4.6655
G1 X163.882 Y94.266 E4.7206
G1 X163.869 Y94.407 E4.7246
G1 X163.638 Y96.329 E4.7796
G1 X163.617 Y96.469 E4.7836
G1 X163.271 Y98.374 E4.8387
G1 X163.242 Y98.512 E4.8427
G1 X162.783 Y100.393 E4.8978
G1 X162.745 Y100.529 E4.9018
G1 X162.175 Y102.379 E4.9569
G1 X162.129 Y102.513 E4.9609
G1 X161.449 Y104.326 E5.0159
G1 X161.395 Y104.456 E5.0199
G1 X160.608 Y106.225 E5.0750
G1 X160.546 Y106.352 E5.0790
G1 X159.654 Y108.071 E5.1341
G1 X159.586 Y108.194 E5.1381
G1 X158.593 Y109.856 E5.1932
G1 X158.517 Y109.975 E5.1972
G1 X157.426 Y111.575 E5.2522
G1 X157.343 Y111.689 E5.2562
G1 X156.158 Y113.221 E5.3113
G1 X156.069 Y113.330 E5.3153
G1 X154.795 Y114.788 E5.3704
G1 X154.699 Y114.892 E5.3744
G1 X153.340 Y116.271 E5.4295
G1 X153.238 Y116.368 E5.4335
G1 X151.799 Y117.664 E5.4885
G1 X151.691 Y117.755 E5.4926
G1 X150.178 Y118.962 E5.5476
G1 X150.065 Y119.047 E5.5516
G1 X148.481 Y120.162 E5.6067
G1 X148.364 Y120.239 E5.6107
G1 X146.716 Y121.257 E5.6658
G1 X146.594 Y121.328 E5.6698
G1 X144.889 Y122.245 E5.7248
G1 X144.763 Y122.309 E5.7289
G1 X143.006 Y123.122 E5.7839
G1 X142.876 Y123.178 E5.7879
G1 X141.074 Y123.885 E5.8430
G1 X140.941 Y123.933 E5.8470
G1 X139.100 Y124.531 E5.9021
G1 X138.964 Y124.571 E5.9061
G1 X137.090 Y125.058 E5.9611
G1 X136.952 Y125.089 E5.9652
G1 X135.053 Y125.464 E6.0202
G1 X134.913 Y125.487 E6.0242
G1 X132.995 Y125.747 E6.0793
G1 X132.854 Y125.761 E6.0833
G1 X130.924 Y125.906 E6.1384
G1 X130.782 Y125.912 E6.1424
G1 X128.847 Y125.941 E6.1974
G1 X128.705 Y125.939 E6.2015
G1 X126.771 Y125.852 E6.2565
G1 X126.630 Y125.842 E6.2605
G1 X124.705 Y125.639 E6.3156
G1 X124.565 Y125.620 E6.3196
G1 X122.655 Y125.303 E6.3747
G1 X122.516 Y125.276 E6.3787
G1 X120.629 Y124.845 E6.4337
G1 X120.492 Y124.810 E6.4378
G1 X118.633 Y124.267 E6.4928
G1 X118.499 Y124.223 E6.4968
G1 X116.676 Y123.570 E6.5519
G1 X116.545 Y123.518 E6.5559
G1 X114.765 Y122.757 E6.6110
G1 X114.636 Y122.698 E6.6150
G1 X112.905 Y121.832 E6.6700
G1 X112.780 Y121.765 E6.6741
G1 X111.104 Y120.797 E6.7291
G1 X110.984 Y120.723 E6.7331
G1 X109.368 Y119.656 E6.7882
G1 X109.252 Y119.575 E6.7922
G1 X107.703 Y118.413 E6.8473
G1 X107.593 Y118.325 E6.8513
G1 X106.116 Y117.073 E6.9064
G1 X106.011 Y116.979 E6.9104
G1 X104.611 Y115.641 E6.9654
G1 X104.512 Y115.540 E6.9694
G1 X103.195 Y114.121 E7.0245
G1 X103.102 Y114.015 E7.0285
G1 X101.873 Y112.519 E7.0836
G1 X101.786 Y112.407 E7.0876
G1 X100.648 Y110.841 E7.1427
G1 X100.569 Y110.724 E7.1467
G1 X99.526 Y109.093 E7.2017
G1 X99.454 Y108.971 E7.2057
G1 X98.511 Y107.280 E7.2608
G1 X98.446 Y107.155 E7.2648
G1 X97.606 Y105.411 E7.3199
G1 X97.548 Y105.282 E7.3239
G1 X96.814 Y103.490 E7.3790
G1 X96.764 Y103.358 E7.3830
G1 X96.303 Y102.007 E7.4236
G1 X96.188 Y102.379 E7.4347
G1 X96.142 Y102.513 E7.4387
G1 X95.462 Y104.326 E7.4937
G1 X95.409 Y104.456 E7.4978
G1 X94.621 Y106.225 E7.5528
G1 X94.560 Y106.352 E7.5568
G1 X93.668 Y108.071 E7.6119
G1 X93.599 Y108.194 E7.6159
G1 X92.606 Y109.856 E7.6710
G1 X92.530 Y109.975 E7.6750
G1 X91.439 Y111.575 E7.7300
G1 X91.356 Y111.689 E7.7341
G1 X90.172 Y113.221 E7.7891
G1 X90.082 Y113.330 E7.7931
G1 X88.808 Y114.788 E7.8482
G1 X88.712 Y114.892 E7.8522
G1 X87.354 Y116.271 E7.9073
G1 X87.251 Y116.368 E7.9113
G1 X85.813 Y117.664 E7.9663
G1 X85.705 Y117.755 E7.9704
G1 X84.191 Y118.962 E8.0254
G1 X84.078 Y119.047 E8.0294
G1 X82.495 Y120.162 E8.0845
G1 X82.377 Y120.239 E8.0885
G1 X80.730 Y121.257 E8.1436
G1 X80.608 Y121.328 E8.1476
G1 X78.903 Y122.245 E8.2026
G1 X78.776 Y122.309 E8.2067
G1 X77.019 Y123.122 E8.2617
G1 X76.890 Y123.178 E8.2657
G1 X75.087 Y123.885 E8.3208
G1 X74.954 Y123.933 E8.3248
G1 X73.113 Y124.531 E8.3799
G1 X72.977 Y124.571 E8.3839
G1 X71.104 Y125.058 E8.4389
G1 X70.966 Y125.089 E8.4430
G1 X69.066 Y125.464 E8.4980
G1 X68.927 Y125.487 E8.5020
G1 X67.008 Y125.747 E8.5571
G1 X66.868 Y125.761 E8.5611
G1 X64.937 Y125.906 E8.6162
G1 X64.796 Y125.912 E8.6202
G1 X62.860 Y125.941 E8.6753
G1 X62.719 Y125.939 E8.6793
G1 X60.785 Y125.852 E8.7343
G1 X60.644 Y125.842 E8.7383
G1 X58.718 Y125.639 E8.7934
G1 X58.578 Y125.620 E8.7974
G1 X56.668 Y125.303 E8.8525
G1 X56.530 Y125.276 E8.8565
G1 X54.642 Y124.845 E8.9116
G1 X54.505 Y124.810 E8.9156
G1 X52.647 Y124.267 E8.9706
G1 X52.513 Y124.223 E8.9746
G1 X50.690 Y123.570 E9.0297
G1 X50.558 Y123.518 E9.0337
G1 X48.778 Y122.757 E9.0888
G1 X48.650 Y122.698 E9.0928
