; G-Code generated by Simplify3D(R) Version 4.1.2
; Aug 28, 2020 at 11:21:16 AM
; Settings Summary
;   processName,Process1
;   applyToModels,PrecisionScale_Case
;   profileName,Wanhao Duplicator 6 - High Strength - LinAdvance - v4 (modified)
;   profileVersion,2020-06-07 16:07:14
;   baseProfile,Default
;   printMaterial,PLA
;   printQuality,Medium
;   printExtruders,
;   extruderName,Primary Extruder
;   extruderToolheadNumber,0
;   extruderDiameter,0.4
;   extruderAutoWidth,1
;   extruderWidth,0.48
;   extrusionMultiplier,1
;   extruderUseRetract,0
;   extruderRetractionDistance,2
;   extruderExtraRestartDistance,0
;   extruderRetractionZLift,0
;   extruderRetractionSpeed,3600
;   extruderUseCoasting,0
;   extruderCoastingDistance,0.2
;   extruderUseWipe,1
;   extruderWipeDistance,0.5
;   primaryExtruder,0
;   layerHeight,0.2
;   topSolidLayers,3
;   bottomSolidLayers,3
;   perimeterOutlines,3
;   printPerimetersInsideOut,1
;   startPointOption,2
;   startPointOriginX,0
;   startPointOriginY,0
;   sequentialIslands,0
;   spiralVaseMode,0
;   firstLayerHeightPercentage,75
;   firstLayerWidthPercentage,100
;   firstLayerUnderspeed,0.5
;   useRaft,0
;   raftExtruder,0
;   raftTopLayers,3
;   raftBaseLayers,2
;   raftOffset,3
;   raftSeparationDistance,0.14
;   raftTopInfill,100
;   aboveRaftSpeedMultiplier,0.3
;   useSkirt,1
;   skirtExtruder,0
;   skirtLayers,1
;   skirtOutlines,2
;   skirtOffset,4
;   usePrimePillar,0
;   primePillarExtruder,999
;   primePillarWidth,12
;   primePillarLocation,7
;   primePillarSpeedMultiplier,1
;   useOozeShield,0
;   oozeShieldExtruder,999
;   oozeShieldOffset,2
;   oozeShieldOutlines,1
;   oozeShieldSidewallShape,1
;   oozeShieldSidewallAngle,30
;   oozeShieldSpeedMultiplier,1
;   infillExtruder,0
;   internalInfillPattern,Rectilinear
;   externalInfillPattern,Rectilinear
;   infillPercentage,20
;   outlineOverlapPercentage,40
;   infillExtrusionWidthPercentage,125
;   minInfillLength,5
;   infillLayerInterval,1
;   internalInfillAngles,45,-45
;   overlapInternalInfillAngles,0
;   externalInfillAngles,45,-45
;   generateSupport,0
;   supportExtruder,0
;   supportInfillPercentage,30
;   supportExtraInflation,0
;   supportBaseLayers,1
;   denseSupportExtruder,0
;   denseSupportLayers,0
;   denseSupportInfillPercentage,70
;   supportLayerInterval,1
;   supportHorizontalPartOffset,0.3
;   supportUpperSeparationLayers,1
;   supportLowerSeparationLayers,1
;   supportType,0
;   supportGridSpacing,4
;   maxOverhangAngle,45
;   supportAngles,0
;   temperatureName,Primary Extruder,Build Plate
;   temperatureNumber,0,1
;   temperatureSetpointCount,1,2
;   temperatureSetpointLayers,1,1,2
;   temperatureSetpointTemperatures,210,60,55
;   temperatureStabilizeAtStartup,1,1
;   temperatureHeatedBed,0,1
;   fanLayers,1,2,3,4
;   fanSpeeds,0,25,50,75
;   blipFanToFullPower,0
;   adjustSpeedForCooling,1
;   minSpeedLayerTime,15
;   minCoolingSpeedSlowdown,20
;   increaseFanForCooling,0
;   minFanLayerTime,45
;   maxCoolingFanSpeed,100
;   increaseFanForBridging,0
;   bridgingFanSpeed,100
;   use5D,1
;   relativeEdistances,0
;   allowEaxisZeroing,1
;   independentExtruderAxes,0
;   includeM10123,0
;   stickySupport,1
;   applyToolheadOffsets,0
;   gcodeXoffset,0
;   gcodeYoffset,0
;   gcodeZoffset,0
;   overrideMachineDefinition,0
;   machineTypeOverride,0
;   strokeXoverride,200
;   strokeYoverride,200
;   strokeZoverride,200
;   originOffsetXoverride,0
;   originOffsetYoverride,0
;   originOffsetZoverride,0
;   homeXdirOverride,-1
;   homeYdirOverride,-1
;   homeZdirOverride,-1
;   flipXoverride,1
;   flipYoverride,-1
;   flipZoverride,1
;   toolheadOffsets,0,0|0,0|0,0|0,0|0,0|0,0
;   overrideFirmwareConfiguration,0
;   firmwareTypeOverride,RepRap (Marlin/Repetier/Sprinter)
;   GPXconfigOverride,r2
;   baudRateOverride,115200
;   overridePrinterModels,0
;   printerModelsOverride
;   startingGcode,; Duplicator 6 / Monoprice Maker Ultimate Start Script V3,M107 ; start with the fan off,G28 ; home,G29 ; Auto Bed Level,G1 Z15 F3600 ; move the platform 15mm down from home,G0 X0 Y0 ; Rapid move X0 Y0,G92 E0 ; zero the extruded length,G1 X8.0 Z0.0 F3600,G1 X10.0 Z0.2 F3600,G1 X50 Z0.4 E9.0 F1000 ; prime,G1 X100.0 E33 F1000 ; prime,G1 X110 Z0.2 F9000 ; pull away wipe,G1 X120 F9000     ; finish wipe,G1 Z2 F1000 ; lift head before first move,G92 E0 ; zero extruder again,M117 Printing...
;   layerChangeGcode,
;   retractionGcode,
;   toolChangeGcode,
;   endingGcode,M107 ; fan off,M104 S0,M140 S0,G91 ; relative movements,G1 Z30 F3600,G90 : back to absolute movement,G92 E1,G1 E-1 F300,G28 X0 Y0,M84
;   exportFileFormat,gcode
;   celebration,0
;   celebrationSong,Funky Town
;   postProcessing,
;   defaultSpeed,3000
;   outlineUnderspeed,0.5
;   solidInfillUnderspeed,0.8
;   supportUnderspeed,0.8
;   rapidXYspeed,4800
;   rapidZspeed,1002
;   minBridgingArea,50
;   bridgingExtraInflation,0
;   bridgingExtrusionMultiplier,1
;   bridgingSpeedMultiplier,1
;   useFixedBridgingAngle,0
;   fixedBridgingAngle,0
;   applyBridgingToPerimeters,0
;   filamentDiameters,1.75|1.75|1.75|1.75|1.75|1.75
;   filamentPricesPerKg,30|46|46|46|46|46
;   filamentDensities,1.25|1.25|1.25|1.25|1.25|1.25
;   useMinPrintHeight,0
;   minPrintHeight,0
;   useMaxPrintHeight,0
;   maxPrintHeight,0
;   useDiaphragm,0
;   diaphragmLayerInterval,20
;   robustSlicing,1
;   mergeAllIntoSolid,0
;   onlyRetractWhenCrossingOutline,1
;   retractBetweenLayers,1
;   useRetractionMinTravel,0
;   retractionMinTravel,3
;   retractWhileWiping,0
;   onlyWipeOutlines,1
;   avoidCrossingOutline,0
;   maxMovementDetourFactor,3
;   toolChangeRetractionDistance,12
;   toolChangeExtraRestartDistance,-0.5
;   toolChangeRetractionSpeed,600
;   externalThinWallType,0
;   internalThinWallType,2
;   thinWallAllowedOverlapPercentage,10
;   singleExtrusionMinLength,1
;   singleExtrusionMinPrintingWidthPercentage,50
;   singleExtrusionMaxPrintingWidthPercentage,200
;   singleExtrusionEndpointExtension,0.2
;   horizontalSizeCompensation,0
G90
M82
M106 S0
M140 S60
M190 S60
M104 S210 T0
M109 S210 T0
; Duplicator 6 / Monoprice Maker Ultimate Start Script V3
M107 ; start with the fan off
G28 ; home
G29 ; Auto Bed Level
G1 Z15 F3600 ; move the platform 15mm down from home
G0 X0 Y0 ; Rapid move X0 Y0
G92 E0 ; zero the extruded length
G1 X8.0 Z0.0 F3600
G1 X10.0 Z0.2 F3600
G1 X50 Z0.4 E9.0 F1000 ; prime
G1 X100.0 E33 F1000 ; prime
G1 X110 Z0.2 F9000 ; pull away wipe
G1 X120 F9000     ; finish wipe
G1 Z2 F1000 ; lift head before first move
G92 E0 ; zero extruder again
M117 Printing...
; process Process1
; layer 1, Z = 0.150
T0
; feature skirt
; tool H0.150 W0.480
G1 Z0.150 F1002
G1 X26.001 Y28.323 F4800
G92 E0.0000
G1 X28.326 Y25.999 E0.0984 F1500
G1 X30.061 Y25.280 E0.1546
G1 X169.939 Y25.280 E4.3417
G1 X171.674 Y25.999 E4.3980
G1 X174.001 Y28.326 E4.4965
G1 X174.720 Y30.061 E4.5527
G1 X174.720 Y169.939 E8.7398
G1 X174.001 Y171.674 E8.7960
G1 X171.674 Y174.001 E8.8946
G1 X169.939 Y174.720 E8.9508
G1 X30.061 Y174.720 E13.1379
G1 X28.326 Y174.001 E13.1941
G1 X25.999 Y171.674 E13.2926
G1 X25.280 Y169.939 E13.3489
G1 X25.283 Y30.058 E17.5361
G1 X26.001 Y28.323 E17.5923
G1 X26.408 Y28.595 F4800
G92 E0.0000
G1 X28.598 Y26.405 E0.0927 F1500
G1 X30.157 Y25.760 E0.1432
G1 X169.843 Y25.760 E4.3246
G1 X171.402 Y26.406 E4.3751
G1 X173.595 Y28.598 E4.4679
G1 X174.240 Y30.157 E4.5184
G1 X174.240 Y169.843 E8.6998
G1 X173.595 Y171.402 E8.7503
G1 X171.402 Y173.595 E8.8431
G1 X169.843 Y174.240 E8.8936
G1 X30.157 Y174.240 E13.0750
G1 X28.598 Y173.595 E13.1255
G1 X26.405 Y171.402 E13.2183
G1 X25.760 Y169.843 E13.2688
G1 X25.763 Y30.154 E17.4503
G1 X26.408 Y28.595 E17.5008
; feature inner perimeter
G1 X31.200 Y31.497 F4800
G92 E0.0000
G1 X31.497 Y31.200 E0.0126 F1125
G1 X168.503 Y31.200 E4.1137
G1 X168.800 Y31.497 E4.1263
G1 X168.800 Y168.503 E8.2275
G1 X168.503 Y168.800 E8.2400
G1 X31.497 Y168.800 E12.3412
G1 X31.200 Y168.503 E12.3538
G1 X31.200 Y31.497 E16.4549
G1 X30.720 Y31.298 F4800
G92 E0.0000
G1 X31.298 Y30.720 E0.0245 F1125
G1 X168.702 Y30.720 E4.1375
G1 X169.280 Y31.298 E4.1620
G1 X169.280 Y168.702 E8.2751
G1 X168.702 Y169.280 E8.2995
G1 X31.298 Y169.280 E12.4126
G1 X30.720 Y168.702 E12.4371
G1 X30.720 Y31.298 E16.5501
; feature outer perimeter
G1 X30.240 Y31.099 F4800
G92 E0.0000
G1 X31.099 Y30.240 E0.0364 F750
G1 X168.901 Y30.240 E4.1613
G1 X169.760 Y31.099 E4.1977
G1 X169.760 Y168.901 E8.3227
G1 X168.901 Y169.760 E8.3591
G1 X31.099 Y169.760 E12.4840
G1 X30.240 Y168.901 E12.5204
G1 X30.240 Y31.099 E16.6454
G1 X30.594 Y30.746 F750
; feature inner perimeter
G1 X91.254 Y86.362 F4800
G92 E0.0000
G1 X90.804 Y87.186 E0.0281 F1125
G1 X90.702 Y87.431 E0.0361
G1 X90.483 Y88.292 E0.0626
G1 X90.448 Y88.556 E0.0706
G1 X90.448 Y89.444 E0.0972
G1 X90.483 Y89.708 E0.1052
G1 X90.702 Y90.569 E0.1317
G1 X90.804 Y90.814 E0.1397
G1 X91.254 Y91.638 E0.1678
G1 X92.021 Y92.483 E0.2020
G1 X92.981 Y93.115 E0.2364
G1 X94.069 Y93.488 E0.2708
G1 X95.190 Y93.577 E0.3045
G1 X95.459 Y93.542 E0.3126
G1 X96.353 Y93.380 E0.3398
G1 X97.397 Y92.908 E0.3741
G1 X98.000 Y92.424 E0.3972
G1 X98.603 Y92.908 E0.4203
G1 X99.647 Y93.380 E0.4547
G1 X100.541 Y93.542 E0.4818
G1 X100.810 Y93.577 E0.4899
G1 X101.931 Y93.488 E0.5236
G1 X103.019 Y93.115 E0.5580
G1 X103.979 Y92.483 E0.5925
G1 X104.746 Y91.638 E0.6266
G1 X105.196 Y90.814 E0.6547
G1 X105.298 Y90.569 E0.6627
G1 X105.517 Y89.708 E0.6893
G1 X105.552 Y89.444 E0.6972
G1 X105.552 Y88.556 E0.7238
G1 X105.517 Y88.292 E0.7318
G1 X105.298 Y87.431 E0.7584
G1 X105.196 Y87.186 E0.7663
G1 X104.746 Y86.362 E0.7944
G1 X103.979 Y85.517 E0.8286
G1 X103.050 Y84.906 E0.8619
G1 X102.798 Y84.801 E0.8700
G1 X101.925 Y84.511 E0.8976
G1 X100.784 Y84.421 E0.9318
G1 X99.651 Y84.619 E0.9662
G1 X98.603 Y85.092 E1.0007
G1 X98.000 Y85.576 E1.0238
G1 X97.397 Y85.092 E1.0469
G1 X96.349 Y84.619 E1.0814
G1 X95.216 Y84.421 E1.1158
G1 X94.069 Y84.512 E1.1502
G1 X92.981 Y84.885 E1.1847
G1 X92.021 Y85.517 E1.2191
G1 X91.254 Y86.362 E1.2532
G1 X91.648 Y86.642 F4800
G92 E0.0000
G1 X91.238 Y87.393 E0.0256 F1125
G1 X91.159 Y87.583 E0.0318
G1 X90.955 Y88.383 E0.0565
G1 X90.928 Y88.587 E0.0626
G1 X90.928 Y89.413 E0.0874
G1 X90.955 Y89.617 E0.0935
G1 X91.159 Y90.417 E0.1182
G1 X91.238 Y90.607 E0.1244
G1 X91.648 Y91.358 E0.1500
G1 X92.336 Y92.115 E0.1806
G1 X93.195 Y92.681 E0.2114
G1 X94.168 Y93.014 E0.2422
G1 X95.178 Y93.094 E0.2725
G1 X95.385 Y93.067 E0.2788
G1 X96.209 Y92.918 E0.3038
G1 X97.144 Y92.495 E0.3346
G1 X98.000 Y91.809 E0.3674
G1 X98.856 Y92.495 E0.4002
G1 X99.791 Y92.918 E0.4310
G1 X100.615 Y93.067 E0.4560
G1 X100.822 Y93.094 E0.4623
G1 X101.832 Y93.014 E0.4926
G1 X102.805 Y92.681 E0.5234
G1 X103.664 Y92.115 E0.5542
G1 X104.352 Y91.358 E0.5848
G1 X104.762 Y90.607 E0.6104
G1 X104.841 Y90.417 E0.6166
G1 X105.045 Y89.617 E0.6413
G1 X105.072 Y89.413 E0.6475
G1 X105.072 Y88.587 E0.6722
G1 X105.045 Y88.383 E0.6783
G1 X104.841 Y87.583 E0.7031
G1 X104.762 Y87.393 E0.7092
G1 X104.352 Y86.642 E0.7348
G1 X103.664 Y85.885 E0.7654
G1 X102.824 Y85.332 E0.7956
G1 X102.630 Y85.251 E0.8018
G1 X101.829 Y84.985 E0.8271
G1 X100.807 Y84.904 E0.8578
G1 X99.793 Y85.081 E0.8886
G1 X98.856 Y85.505 E0.9194
G1 X98.000 Y86.191 E0.9522
G1 X97.144 Y85.505 E0.9851
G1 X96.207 Y85.081 E1.0159
G1 X95.193 Y84.904 E1.0467
G1 X94.168 Y84.986 E1.0775
G1 X93.195 Y85.319 E1.1083
G1 X92.336 Y85.885 E1.1390
G1 X91.648 Y86.642 E1.1697
; feature outer perimeter
G1 X92.042 Y86.923 F4800
G92 E0.0000
G1 X91.671 Y87.601 E0.0231 F750
G1 X91.616 Y87.735 E0.0275
G1 X91.427 Y88.474 E0.0503
G1 X91.408 Y88.619 E0.0547
G1 X91.408 Y89.381 E0.0775
G1 X91.427 Y89.526 E0.0819
G1 X91.616 Y90.265 E0.1047
G1 X91.671 Y90.399 E0.1091
G1 X92.042 Y91.077 E0.1322
G1 X92.650 Y91.748 E0.1593
G1 X93.408 Y92.246 E0.1864
G1 X94.266 Y92.541 E0.2136
G1 X95.165 Y92.612 E0.2406
G1 X95.311 Y92.593 E0.2450
G1 X96.065 Y92.456 E0.2679
G1 X96.891 Y92.083 E0.2951
G1 X97.599 Y91.515 E0.3222
G1 X98.000 Y90.980 E0.3422
G1 X98.401 Y91.515 E0.3622
G1 X99.109 Y92.083 E0.3894
G1 X99.935 Y92.456 E0.4165
G1 X100.689 Y92.593 E0.4395
G1 X100.835 Y92.612 E0.4439
G1 X101.734 Y92.541 E0.4709
G1 X102.592 Y92.246 E0.4980
G1 X103.350 Y91.748 E0.5252
G1 X103.958 Y91.077 E0.5523
G1 X104.329 Y90.399 E0.5754
G1 X104.384 Y90.265 E0.5798
G1 X104.573 Y89.526 E0.6026
G1 X104.592 Y89.381 E0.6070
G1 X104.592 Y88.619 E0.6298
G1 X104.573 Y88.474 E0.6342
G1 X104.384 Y87.735 E0.6570
G1 X104.329 Y87.601 E0.6614
G1 X103.958 Y86.923 E0.6845
G1 X103.350 Y86.252 E0.7116
G1 X102.598 Y85.758 E0.7385
G1 X102.463 Y85.702 E0.7429
G1 X101.733 Y85.459 E0.7659
G1 X100.830 Y85.388 E0.7930
G1 X99.936 Y85.544 E0.8202
G1 X99.109 Y85.917 E0.8474
G1 X98.401 Y86.485 E0.8745
G1 X98.000 Y87.020 E0.8945
G1 X97.599 Y86.485 E0.9145
G1 X96.891 Y85.917 E0.9417
G1 X96.064 Y85.544 E0.9689
G1 X95.170 Y85.388 E0.9960
G1 X94.266 Y85.459 E1.0232
G1 X93.408 Y85.754 E1.0503
G1 X92.650 Y86.252 E1.0775
G1 X92.042 Y86.923 E1.1046
G1 X91.802 Y87.362 F750
; feature inner perimeter
G1 X95.216 Y124.421 F4800
G92 E0.0000
G1 X94.069 Y124.512 E0.0344 F1125
G1 X92.981 Y124.885 E0.0689
G1 X92.021 Y125.517 E0.1033
G1 X91.254 Y126.362 E0.1374
G1 X90.804 Y127.186 E0.1655
G1 X90.702 Y127.431 E0.1735
G1 X90.483 Y128.292 E0.2001
G1 X90.448 Y128.556 E0.2080
G1 X90.448 Y129.444 E0.2346
G1 X90.483 Y129.708 E0.2426
G1 X90.702 Y130.569 E0.2692
G1 X90.804 Y130.814 E0.2771
G1 X91.230 Y131.594 E0.3037
G1 X91.392 Y131.805 E0.3117
G1 X92.028 Y132.487 E0.3396
G1 X92.981 Y133.115 E0.3738
G1 X94.039 Y133.478 E0.4073
G1 X94.309 Y133.513 E0.4154
G1 X95.221 Y133.578 E0.4428
G1 X96.349 Y133.381 E0.4770
G1 X97.397 Y132.908 E0.5115
G1 X97.999 Y132.425 E0.5346
G1 X98.402 Y132.750 E0.5501
G1 X98.615 Y132.913 E0.5581
G1 X99.651 Y133.381 E0.5922
G1 X100.779 Y133.578 E0.6264
G1 X101.691 Y133.513 E0.6538
G1 X101.961 Y133.478 E0.6619
G1 X103.019 Y133.115 E0.6954
G1 X103.972 Y132.487 E0.7296
G1 X104.608 Y131.805 E0.7575
G1 X104.770 Y131.594 E0.7655
G1 X105.196 Y130.814 E0.7921
G1 X105.298 Y130.569 E0.8000
G1 X105.517 Y129.708 E0.8266
G1 X105.552 Y129.444 E0.8346
G1 X105.552 Y128.556 E0.8612
G1 X105.517 Y128.292 E0.8691
G1 X105.298 Y127.431 E0.8957
G1 X105.196 Y127.186 E0.9037
G1 X104.746 Y126.362 E0.9318
G1 X103.979 Y125.517 E0.9659
G1 X103.019 Y124.885 E1.0003
G1 X101.931 Y124.512 E1.0348
G1 X100.784 Y124.421 E1.0692
G1 X99.651 Y124.619 E1.1036
G1 X98.603 Y125.092 E1.1381
G1 X98.000 Y125.576 E1.1612
G1 X97.397 Y125.092 E1.1843
G1 X96.349 Y124.619 E1.2188
G1 X95.216 Y124.421 E1.2532
G1 X95.193 Y124.904 F4800
G92 E0.0000
G1 X94.168 Y124.986 E0.0308 F1125
G1 X93.195 Y125.319 E0.0616
G1 X92.336 Y125.885 E0.0924
G1 X91.648 Y126.642 E0.1230
G1 X91.238 Y127.393 E0.1486
G1 X91.159 Y127.583 E0.1548
G1 X90.955 Y128.383 E0.1795
G1 X90.928 Y128.587 E0.1856
G1 X90.928 Y129.413 E0.2104
G1 X90.955 Y129.617 E0.2165
G1 X91.159 Y130.417 E0.2412
G1 X91.238 Y130.607 E0.2474
G1 X91.634 Y131.331 E0.2721
G1 X91.759 Y131.494 E0.2782
G1 X92.339 Y132.118 E0.3038
G1 X93.195 Y132.681 E0.3344
G1 X94.150 Y133.008 E0.3646
G1 X94.357 Y133.036 E0.3709
G1 X95.196 Y133.095 E0.3961
G1 X96.207 Y132.919 E0.4268
G1 X97.144 Y132.495 E0.4576
G1 X98.000 Y131.809 E0.4904
G1 X98.698 Y132.372 E0.5173
G1 X98.863 Y132.499 E0.5235
G1 X99.793 Y132.919 E0.5540
G1 X100.804 Y133.095 E0.5848
G1 X101.643 Y133.036 E0.6099
G1 X101.850 Y133.008 E0.6162
G1 X102.805 Y132.681 E0.6464
G1 X103.660 Y132.118 E0.6771
G1 X104.241 Y131.494 E0.7026
G1 X104.366 Y131.331 E0.7087
G1 X104.762 Y130.607 E0.7334
G1 X104.841 Y130.417 E0.7396
G1 X105.045 Y129.617 E0.7643
G1 X105.072 Y129.413 E0.7705
