; G-Code generated by Simplify3D(R) Version 4.1.2
; Aug 28, 2020 at 11:32:19 AM
; Settings Summary
;   processName,Process1
;   applyToModels,PrecisionScale_Plate
;   profileName,Wanhao Duplicator 6 - High Strength - LinAdvance - v4 (modified)
;   profileVersion,2020-06-07 16:07:14
;   baseProfile,Default
;   printMaterial,PLA
;   printQuality,Medium
;   printExtruders,
;   extruderName,Primary Extruder
;   extruderToolheadNumber,0
;   extruderDiameter,0.4
;   extruderAutoWidth,1
;   extruderWidth,0.48
;   extrusionMultiplier,1
;   extruderUseRetract,0
;   extruderRetractionDistance,2
;   extruderExtraRestartDistance,0
;   extruderRetractionZLift,0
;   extruderRetractionSpeed,3600
;   extruderUseCoasting,0
;   extruderCoastingDistance,0.2
;   extruderUseWipe,1
;   extruderWipeDistance,0.5
;   primaryExtruder,0
;   layerHeight,0.2
;   topSolidLayers,3
;   bottomSolidLayers,3
;   perimeterOutlines,3
;   printPerimetersInsideOut,1
;   startPointOption,2
;   startPointOriginX,0
;   startPointOriginY,0
;   sequentialIslands,0
;   spiralVaseMode,0
;   firstLayerHeightPercentage,75
;   firstLayerWidthPercentage,100
;   firstLayerUnderspeed,0.5
;   useRaft,0
;   raftExtruder,0
;   raftTopLayers,3
;   raftBaseLayers,2
;   raftOffset,3
;   raftSeparationDistance,0.14
;   raftTopInfill,100
;   aboveRaftSpeedMultiplier,0.3
;   useSkirt,1
;   skirtExtruder,0
;   skirtLayers,1
;   skirtOutlines,2
;   skirtOffset,4
;   usePrimePillar,0
;   primePillarExtruder,999
;   primePillarWidth,12
;   primePillarLocation,7
;   primePillarSpeedMultiplier,1
;   useOozeShield,0
;   oozeShieldExtruder,999
;   oozeShieldOffset,2
;   oozeShieldOutlines,1
;   oozeShieldSidewallShape,1
;   oozeShieldSidewallAngle,30
;   oozeShieldSpeedMultiplier,1
;   infillExtruder,0
;   internalInfillPattern,Rectilinear
;   externalInfillPattern,Rectilinear
;   infillPercentage,20
;   outlineOverlapPercentage,40
;   infillExtrusionWidthPercentage,125
;   minInfillLength,5
;   infillLayerInterval,1
;   internalInfillAngles,45,-45
;   overlapInternalInfillAngles,0
;   externalInfillAngles,45,-45
;   generateSupport,0
;   supportExtruder,0
;   supportInfillPercentage,30
;   supportExtraInflation,0
;   supportBaseLayers,1
;   denseSupportExtruder,0
;   denseSupportLayers,0
;   denseSupportInfillPercentage,70
;   supportLayerInterval,1
;   supportHorizontalPartOffset,0.3
;   supportUpperSeparationLayers,1
;   supportLowerSeparationLayers,1
;   supportType,0
;   supportGridSpacing,4
;   maxOverhangAngle,45
;   supportAngles,0
;   temperatureName,Primary Extruder,Build Plate
;   temperatureNumber,0,1
;   temperatureSetpointCount,1,2
;   temperatureSetpointLayers,1,1,2
;   temperatureSetpointTemperatures,210,60,55
;   temperatureStabilizeAtStartup,1,1
;   temperatureHeatedBed,0,1
;   fanLayers,1,2,3,4
;   fanSpeeds,0,25,50,75
;   blipFanToFullPower,0
;   adjustSpeedForCooling,1
;   minSpeedLayerTime,15
;   minCoolingSpeedSlowdown,20
;   increaseFanForCooling,0
;   minFanLayerTime,45
;   maxCoolingFanSpeed,100
;   increaseFanForBridging,0
;   bridgingFanSpeed,100
;   use5D,1
;   relativeEdistances,0
;   allowEaxisZeroing,1
;   independentExtruderAxes,0
;   includeM10123,0
;   stickySupport,1
;   applyToolheadOffsets,0
;   gcodeXoffset,0
;   gcodeYoffset,0
;   gcodeZoffset,0
;   overrideMachineDefinition,0
;   machineTypeOverride,0
;   strokeXoverride,200
;   strokeYoverride,200
;   strokeZoverride,200
;   originOffsetXoverride,0
;   originOffsetYoverride,0
;   originOffsetZoverride,0
;   homeXdirOverride,-1
;   homeYdirOverride,-1
;   homeZdirOverride,-1
;   flipXoverride,1
;   flipYoverride,-1
;   flipZoverride,1
;   toolheadOffsets,0,0|0,0|0,0|0,0|0,0|0,0
;   overrideFirmwareConfiguration,0
;   firmwareTypeOverride,RepRap (Marlin/Repetier/Sprinter)
;   GPXconfigOverride,r2
;   baudRateOverride,115200
;   overridePrinterModels,0
;   printerModelsOverride
;   startingGcode,; Duplicator 6 / Monoprice Maker Ultimate Start Script V3,M107 ; start with the fan off,G28 ; home,G29 ; Auto Bed Level,G1 Z15 F3600 ; move the platform 15mm down from home,G0 X0 Y0 ; Rapid move X0 Y0,G92 E0 ; zero the extruded length,G1 X8.0 Z0.0 F3600,G1 X10.0 Z0.2 F3600,G1 X50 Z0.4 E9.0 F1000 ; prime,G1 X100.0 E33 F1000 ; prime,G1 X110 Z0.2 F9000 ; pull away wipe,G1 X120 F9000     ; finish wipe,G1 Z2 F1000 ; lift head before first move,G92 E0 ; zero extruder again,M117 Printing...
;   layerChangeGcode,
;   retractionGcode,
;   toolChangeGcode,
;   endingGcode,M107 ; fan off,M104 S0,M140 S0,G91 ; relative movements,G1 Z30 F3600,G90 : back to absolute movement,G92 E1,G1 E-1 F300,G28 X0 Y0,M84
;   exportFileFormat,gcode
;   celebration,0
;   celebrationSong,Funky Town
;   postProcessing,
;   defaultSpeed,3000
;   outlineUnderspeed,0.5
;   solidInfillUnderspeed,0.8
;   supportUnderspeed,0.8
;   rapidXYspeed,4800
;   rapidZspeed,1002
;   minBridgingArea,50
;   bridgingExtraInflation,0
;   bridgingExtrusionMultiplier,1
;   bridgingSpeedMultiplier,1
;   useFixedBridgingAngle,0
;   fixedBridgingAngle,0
;   applyBridgingToPerimeters,0
;   filamentDiameters,1.75|1.75|1.75|1.75|1.75|1.75
;   filamentPricesPerKg,30|46|46|46|46|46
;   filamentDensities,1.25|1.25|1.25|1.25|1.25|1.25
;   useMinPrintHeight,0
;   minPrintHeight,0
;   useMaxPrintHeight,0
;   maxPrintHeight,0
;   useDiaphragm,0
;   diaphragmLayerInterval,20
;   robustSlicing,1
;   mergeAllIntoSolid,0
;   onlyRetractWhenCrossingOutline,1
;   retractBetweenLayers,1
;   useRetractionMinTravel,0
;   retractionMinTravel,3
;   retractWhileWiping,0
;   onlyWipeOutlines,1
;   avoidCrossingOutline,0
;   maxMovementDetourFactor,3
;   toolChangeRetractionDistance,12
;   toolChangeExtraRestartDistance,-0.5
;   toolChangeRetractionSpeed,600
;   externalThinWallType,0
;   internalThinWallType,2
;   thinWallAllowedOverlapPercentage,10
;   singleExtrusionMinLength,1
;   singleExtrusionMinPrintingWidthPercentage,50
;   singleExtrusionMaxPrintingWidthPercentage,200
;   singleExtrusionEndpointExtension,0.2
;   horizontalSizeCompensation,0
G90
M82
M106 S0
M140 S60
M190 S60
M104 S210 T0
M109 S210 T0
; Duplicator 6 / Monoprice Maker Ultimate Start Script V3
M107 ; start with the fan off
G28 ; home
G29 ; Auto Bed Level
G1 Z15 F3600 ; move the platform 15mm down from home
G0 X0 Y0 ; Rapid move X0 Y0
G92 E0 ; zero the extruded length
G1 X8.0 Z0.0 F3600
G1 X10.0 Z0.2 F3600
G1 X50 Z0.4 E9.0 F1000 ; prime
G1 X100.0 E33 F1000 ; prime
G1 X110 Z0.2 F9000 ; pull away wipe
G1 X120 F9000     ; finish wipe
G1 Z2 F1000 ; lift head before first move
G92 E0 ; zero extruder again
M117 Printing...
; process Process1
; layer 1, Z = 0.150
T0
; feature skirt
; tool H0.150 W0.480
G1 Z0.150 F1002
G1 X29.476 Y43.924 F4800
G92 E0.0000
G1 X31.211 Y43.205 E0.0562 F1500
G1 X168.789 Y43.205 E4.1745
G1 X170.524 Y43.924 E4.2307
G1 X173.076 Y46.476 E4.3388
G1 X173.795 Y48.211 E4.3950
G1 X173.795 Y154.955 E7.5903
G1 X171.030 Y157.720 E7.7073
G1 X28.970 Y157.720 E11.9598
G1 X26.205 Y154.955 E12.0768
G1 X26.205 Y48.211 E15.2721
G1 X26.924 Y46.476 E15.3283
G1 X29.476 Y43.924 E15.4364
G1 X29.748 Y44.330 F4800
G92 E0.0000
G1 X31.306 Y43.685 E0.0505 F1500
G1 X168.694 Y43.685 E4.1631
G1 X170.252 Y44.330 E4.2136
G1 X172.669 Y46.748 E4.3159
G1 X173.315 Y48.306 E4.3664
G1 X173.315 Y154.756 E7.5529
G1 X170.831 Y157.240 E7.6580
G1 X29.169 Y157.240 E11.8986
G1 X26.685 Y154.756 E12.0037
G1 X26.685 Y48.306 E15.1902
G1 X27.330 Y46.748 E15.2407
G1 X29.748 Y44.330 E15.3430
; feature inner perimeter
G1 X32.647 Y49.125 F4800
G92 E0.0000
G1 X167.353 Y49.125 E4.0323 F1125
G1 X167.875 Y49.647 E4.0544
G1 X167.875 Y151.800 E7.1123
G1 X32.125 Y151.800 E11.1758
G1 X32.125 Y49.647 E14.2337
G1 X32.647 Y49.125 E14.2558
G1 X32.448 Y48.645 F4800
G92 E0.0000
G1 X167.552 Y48.645 E4.0442 F1125
G1 X168.355 Y49.448 E4.0782
G1 X168.355 Y152.280 E7.1564
G1 X31.645 Y152.280 E11.2487
G1 X31.645 Y49.448 E14.3269
G1 X32.448 Y48.645 E14.3609
; feature outer perimeter
G1 X32.249 Y48.165 F4800
G92 E0.0000
G1 X167.751 Y48.165 E4.0561 F750
G1 X168.835 Y49.249 E4.1020
G1 X168.835 Y152.760 E7.2005
G1 X31.165 Y152.760 E11.3216
G1 X31.165 Y49.249 E14.4201
G1 X32.249 Y48.165 E14.4660
G1 X32.749 Y48.165 F750
; feature inner perimeter
G1 X91.254 Y85.362 F4800
G92 E0.0000
G1 X90.804 Y86.186 E0.0281 F1125
G1 X90.702 Y86.431 E0.0361
G1 X90.483 Y87.292 E0.0626
G1 X90.448 Y87.556 E0.0706
G1 X90.448 Y88.444 E0.0972
G1 X90.483 Y88.708 E0.1052
G1 X90.702 Y89.569 E0.1318
G1 X90.804 Y89.814 E0.1397
G1 X91.254 Y90.638 E0.1678
G1 X92.021 Y91.483 E0.2020
G1 X92.981 Y92.115 E0.2364
G1 X94.069 Y92.488 E0.2708
G1 X95.190 Y92.577 E0.3045
G1 X95.459 Y92.542 E0.3126
G1 X96.353 Y92.380 E0.3398
G1 X97.397 Y91.908 E0.3741
G1 X98.000 Y91.424 E0.3972
G1 X98.603 Y91.908 E0.4203
G1 X99.647 Y92.380 E0.4547
G1 X100.541 Y92.542 E0.4818
G1 X100.810 Y92.577 E0.4899
G1 X101.931 Y92.488 E0.5236
G1 X103.019 Y92.115 E0.5580
G1 X103.979 Y91.483 E0.5925
G1 X104.746 Y90.638 E0.6266
G1 X105.196 Y89.814 E0.6547
G1 X105.298 Y89.569 E0.6627
G1 X105.517 Y88.708 E0.6893
G1 X105.552 Y88.444 E0.6972
G1 X105.552 Y87.556 E0.7238
G1 X105.517 Y87.292 E0.7318
G1 X105.298 Y86.431 E0.7584
G1 X105.196 Y86.186 E0.7663
G1 X104.746 Y85.362 E0.7944
G1 X104.009 Y84.550 E0.8273
G1 X103.791 Y84.383 E0.8354
G1 X103.012 Y83.883 E0.8632
G1 X101.931 Y83.512 E0.8974
G1 X100.810 Y83.423 E0.9311
G1 X100.541 Y83.458 E0.9392
G1 X99.647 Y83.620 E0.9664
G1 X98.603 Y84.092 E1.0007
G1 X98.000 Y84.576 E1.0238
G1 X97.397 Y84.092 E1.0469
G1 X96.349 Y83.619 E1.0814
G1 X95.216 Y83.421 E1.1158
G1 X94.069 Y83.512 E1.1502
G1 X92.981 Y83.885 E1.1846
G1 X92.021 Y84.517 E1.2191
G1 X91.254 Y85.362 E1.2532
G1 X91.648 Y85.642 F4800
G92 E0.0000
G1 X91.238 Y86.393 E0.0256 F1125
G1 X91.159 Y86.583 E0.0318
G1 X90.955 Y87.383 E0.0565
G1 X90.928 Y87.587 E0.0626
G1 X90.928 Y88.413 E0.0874
G1 X90.955 Y88.617 E0.0935
G1 X91.159 Y89.417 E0.1182
G1 X91.238 Y89.607 E0.1244
G1 X91.648 Y90.358 E0.1500
G1 X92.336 Y91.115 E0.1806
G1 X93.195 Y91.681 E0.2114
G1 X94.168 Y92.014 E0.2422
G1 X95.178 Y92.094 E0.2725
G1 X95.385 Y92.067 E0.2788
G1 X96.209 Y91.918 E0.3038
G1 X97.144 Y91.495 E0.3346
G1 X98.000 Y90.809 E0.3674
G1 X98.856 Y91.495 E0.4003
G1 X99.791 Y91.918 E0.4310
G1 X100.615 Y92.067 E0.4560
G1 X100.822 Y92.094 E0.4623
G1 X101.832 Y92.014 E0.4926
G1 X102.805 Y91.681 E0.5234
G1 X103.664 Y91.115 E0.5542
G1 X104.352 Y90.358 E0.5848
G1 X104.762 Y89.607 E0.6104
G1 X104.841 Y89.417 E0.6166
G1 X105.045 Y88.617 E0.6413
G1 X105.072 Y88.413 E0.6475
G1 X105.072 Y87.587 E0.6722
G1 X105.045 Y87.383 E0.6783
G1 X104.841 Y86.583 E0.7031
G1 X104.762 Y86.393 E0.7092
G1 X104.352 Y85.642 E0.7348
G1 X103.682 Y84.904 E0.7647
G1 X103.515 Y84.776 E0.7710
G1 X102.801 Y84.318 E0.7964
G1 X101.832 Y83.985 E0.8270
G1 X100.822 Y83.906 E0.8574
G1 X100.615 Y83.933 E0.8636
G1 X99.791 Y84.082 E0.8887
G1 X98.856 Y84.505 E0.9194
G1 X98.000 Y85.191 E0.9522
G1 X97.144 Y84.505 E0.9851
G1 X96.207 Y84.081 E1.0159
G1 X95.193 Y83.904 E1.0467
G1 X94.168 Y83.986 E1.0775
G1 X93.195 Y84.319 E1.1082
G1 X92.336 Y84.885 E1.1390
G1 X91.648 Y85.642 E1.1697
; feature outer perimeter
G1 X92.042 Y85.923 F4800
G92 E0.0000
G1 X91.671 Y86.601 E0.0231 F750
G1 X91.616 Y86.735 E0.0275
G1 X91.427 Y87.474 E0.0503
G1 X91.408 Y87.619 E0.0547
G1 X91.408 Y88.381 E0.0775
G1 X91.427 Y88.526 E0.0819
G1 X91.616 Y89.265 E0.1047
G1 X91.671 Y89.399 E0.1091
G1 X92.042 Y90.077 E0.1322
G1 X92.650 Y90.748 E0.1593
G1 X93.408 Y91.246 E0.1864
G1 X94.266 Y91.541 E0.2136
G1 X95.165 Y91.612 E0.2406
G1 X95.311 Y91.593 E0.2450
G1 X96.065 Y91.456 E0.2679
G1 X96.891 Y91.083 E0.2951
G1 X97.599 Y90.515 E0.3222
G1 X98.000 Y89.980 E0.3422
G1 X98.401 Y90.515 E0.3622
G1 X99.109 Y91.083 E0.3894
G1 X99.935 Y91.456 E0.4165
G1 X100.689 Y91.593 E0.4395
G1 X100.835 Y91.612 E0.4439
G1 X101.734 Y91.541 E0.4709
G1 X102.592 Y91.246 E0.4980
G1 X103.350 Y90.748 E0.5252
G1 X103.958 Y90.077 E0.5523
G1 X104.329 Y89.399 E0.5754
G1 X104.384 Y89.265 E0.5798
G1 X104.573 Y88.526 E0.6026
G1 X104.592 Y88.381 E0.6070
G1 X104.592 Y87.619 E0.6298
G1 X104.573 Y87.474 E0.6342
G1 X104.384 Y86.735 E0.6570
G1 X104.329 Y86.601 E0.6614
G1 X103.958 Y85.923 E0.6845
G1 X103.356 Y85.259 E0.7113
G1 X103.239 Y85.169 E0.7157
G1 X102.591 Y84.753 E0.7388
G1 X101.734 Y84.459 E0.7659
G1 X100.835 Y84.388 E0.7929
G1 X100.689 Y84.407 E0.7973
G1 X99.935 Y84.544 E0.8202
G1 X99.109 Y84.917 E0.8474
G1 X98.401 Y85.485 E0.8745
G1 X98.000 Y86.020 E0.8945
G1 X97.599 Y85.485 E0.9145
G1 X96.891 Y84.917 E0.9417
G1 X96.064 Y84.544 E0.9689
G1 X95.170 Y84.388 E0.9960
G1 X94.266 Y84.459 E1.0232
G1 X93.408 Y84.754 E1.0503
G1 X92.650 Y85.252 E1.0775
G1 X92.042 Y85.923 E1.1046
G1 X91.802 Y86.362 F750
; feature solid layer
G1 X94.140 Y92.783 F4800
G92 E0.0000
G1 X152.870 Y151.512 E2.4862 F1200
G1 X153.548 Y151.512 E2.5065
G1 X94.878 Y92.841 E4.9903
G1 X95.198 Y92.866 E4.9999
G1 X95.503 Y92.826 E5.0091
G1 X95.536 Y92.820 E5.0101
G1 X154.227 Y151.512 E7.4947
G1 X154.906 Y151.512 E7.5150
G1 X96.110 Y92.716 E10.0040
G1 X96.439 Y92.657 E10.0140
G1 X96.639 Y92.566 E10.0206
G1 X155.585 Y151.512 E12.5160
G1 X156.264 Y151.512 E12.5363
G1 X97.107 Y92.355 E15.0406
G1 X97.549 Y92.155 E15.0551
G1 X97.569 Y92.139 E15.0559
G1 X156.943 Y151.512 E17.5694
G1 X157.621 Y151.512 E17.5897
G1 X97.946 Y91.837 E20.1159
G1 X98.000 Y91.793 E20.1180
G1 X98.451 Y92.155 E20.1353
G1 X99.349 Y92.561 E20.1648
G1 X158.300 Y151.512 E22.6604
G1 X158.979 Y151.512 E22.6807
G1 X100.248 Y92.781 E25.1670
G1 X100.497 Y92.826 E25.1745
G1 X100.802 Y92.866 E25.1838
G1 X100.997 Y92.851 E25.1896
G1 X159.658 Y151.512 E27.6729
G1 X160.337 Y151.512 E27.6932
G1 X101.626 Y92.801 E30.1787
G1 X101.990 Y92.772 E30.1896
G1 X102.203 Y92.699 E30.1963
G1 X161.016 Y151.512 E32.6861
G1 X161.694 Y151.512 E32.7064
G1 X102.708 Y92.526 E35.2035
G1 X103.147 Y92.376 E35.2173
G1 X103.201 Y92.340 E35.2193
G1 X162.373 Y151.512 E37.7242
G1 X163.052 Y151.512 E37.7445
G1 X103.610 Y92.070 E40.2609
G1 X104.020 Y91.801 E40.2756
G1 X163.731 Y151.512 E42.8033
G1 X164.410 Y151.512 E42.8237
G1 X104.374 Y91.476 E45.3652
G1 X104.697 Y91.120 E45.3796
G1 X165.088 Y151.512 E47.9361
G1 X165.767 Y151.512 E47.9565
G1 X105.010 Y90.755 E50.5285
G1 X105.250 Y90.316 E50.5435
G1 X166.446 Y151.512 E53.1341
G1 X167.125 Y151.512 E53.1544
G1 X105.484 Y89.871 E55.7639
G1 X105.572 Y89.660 E55.7707
G1 X105.649 Y89.357 E55.7801
G1 X167.587 Y151.295 E58.4021
G1 X167.587 Y150.616 E58.4224
G1 X105.787 Y88.816 E61.0386
G1 X105.801 Y88.762 E61.0403
G1 X105.840 Y88.463 E61.0493
G1 X105.840 Y88.191 E61.0575
G1 X167.587 Y149.938 E63.6714
G1 X167.587 Y149.259 E63.6918
G1 X105.836 Y87.508 E66.3059
G1 X105.801 Y87.238 E66.3140
G1 X105.648 Y86.641 E66.3325
G1 X167.587 Y148.580 E68.9545
G1 X167.587 Y147.901 E68.9748
G1 X105.105 Y85.420 E71.6199
G1 X166.849 Y49.413 F4800
G92 E0.0000
G1 X167.587 Y50.151 E0.0312 F1200
G1 X167.587 Y50.830 E0.0515
G1 X166.170 Y49.413 E0.1115
G1 X165.492 Y49.413 E0.1318
G1 X167.587 Y51.508 E0.2205
G1 X167.587 Y52.187 E0.2409
G1 X164.813 Y49.413 E0.3583
G1 X164.134 Y49.413 E0.3786
G1 X167.587 Y52.866 E0.5248
G1 X167.587 Y53.545 E0.5451
G1 X163.455 Y49.413 E0.7200
G1 X162.776 Y49.413 E0.7403
G1 X167.587 Y54.224 E0.9440
G1 X167.587 Y54.902 E0.9643
G1 X162.098 Y49.413 E1.1967
G1 X161.419 Y49.413 E1.2170
G1 X167.587 Y55.581 E1.4781
G1 X167.587 Y56.260 E1.4985
G1 X160.740 Y49.413 E1.7883
G1 X160.061 Y49.413 E1.8086
G1 X167.587 Y56.939 E2.1272
G1 X167.587 Y57.618 E2.1476
G1 X159.382 Y49.413 E2.4949
G1 X158.703 Y49.413 E2.5152
G1 X167.587 Y58.297 E2.8913
G1 X167.587 Y58.975 E2.9116
G1 X158.025 Y49.413 E3.3164
G1 X157.346 Y49.413 E3.3367
