; G-Code generated by Simplify3D(R) Version 4.1.2
; Aug 28, 2020 at 11:30:36 AM
; Settings Summary
;   processName,Process1
;   applyToModels,PrecisionScale_Lid
;   profileName,Wanhao Duplicator 6 - High Strength - LinAdvance - v4 (modified)
;   profileVersion,2020-06-07 16:07:14
;   baseProfile,Default
;   printMaterial,PLA
;   printQuality,Medium
;   printExtruders,
;   extruderName,Primary Extruder
;   extruderToolheadNumber,0
;   extruderDiameter,0.4
;   extruderAutoWidth,1
;   extruderWidth,0.48
;   extrusionMultiplier,1
;   extruderUseRetract,0
;   extruderRetractionDistance,2
;   extruderExtraRestartDistance,0
;   extruderRetractionZLift,0
;   extruderRetractionSpeed,3600
;   extruderUseCoasting,0
;   extruderCoastingDistance,0.2
;   extruderUseWipe,1
;   extruderWipeDistance,0.5
;   primaryExtruder,0
;   layerHeight,0.2
;   topSolidLayers,3
;   bottomSolidLayers,3
;   perimeterOutlines,3
;   printPerimetersInsideOut,1
;   startPointOption,2
;   startPointOriginX,0
;   startPointOriginY,0
;   sequentialIslands,0
;   spiralVaseMode,0
;   firstLayerHeightPercentage,75
;   firstLayerWidthPercentage,100
;   firstLayerUnderspeed,0.5
;   useRaft,0
;   raftExtruder,0
;   raftTopLayers,3
;   raftBaseLayers,2
;   raftOffset,3
;   raftSeparationDistance,0.14
;   raftTopInfill,100
;   aboveRaftSpeedMultiplier,0.3
;   useSkirt,1
;   skirtExtruder,0
;   skirtLayers,1
;   skirtOutlines,2
;   skirtOffset,4
;   usePrimePillar,0
;   primePillarExtruder,999
;   primePillarWidth,12
;   primePillarLocation,7
;   primePillarSpeedMultiplier,1
;   useOozeShield,0
;   oozeShieldExtruder,999
;   oozeShieldOffset,2
;   oozeShieldOutlines,1
;   oozeShieldSidewallShape,1
;   oozeShieldSidewallAngle,30
;   oozeShieldSpeedMultiplier,1
;   infillExtruder,0
;   internalInfillPattern,Rectilinear
;   externalInfillPattern,Rectilinear
;   infillPercentage,20
;   outlineOverlapPercentage,40
;   infillExtrusionWidthPercentage,125
;   minInfillLength,5
;   infillLayerInterval,1
;   internalInfillAngles,45,-45
;   overlapInternalInfillAngles,0
;   externalInfillAngles,45,-45
;   generateSupport,0
;   supportExtruder,0
;   supportInfillPercentage,30
;   supportExtraInflation,0
;   supportBaseLayers,1
;   denseSupportExtruder,0
;   denseSupportLayers,0
;   denseSupportInfillPercentage,70
;   supportLayerInterval,1
;   supportHorizontalPartOffset,0.3
;   supportUpperSeparationLayers,1
;   supportLowerSeparationLayers,1
;   supportType,0
;   supportGridSpacing,4
;   maxOverhangAngle,45
;   supportAngles,0
;   temperatureName,Primary Extruder,Build Plate
;   temperatureNumber,0,1
;   temperatureSetpointCount,1,2
;   temperatureSetpointLayers,1,1,2
;   temperatureSetpointTemperatures,210,60,55
;   temperatureStabilizeAtStartup,1,1
;   temperatureHeatedBed,0,1
;   fanLayers,1,2,3,4
;   fanSpeeds,0,25,50,75
;   blipFanToFullPower,0
;   adjustSpeedForCooling,1
;   minSpeedLayerTime,15
;   minCoolingSpeedSlowdown,20
;   increaseFanForCooling,0
;   minFanLayerTime,45
;   maxCoolingFanSpeed,100
;   increaseFanForBridging,0
;   bridgingFanSpeed,100
;   use5D,1
;   relativeEdistances,0
;   allowEaxisZeroing,1
;   independentExtruderAxes,0
;   includeM10123,0
;   stickySupport,1
;   applyToolheadOffsets,0
;   gcodeXoffset,0
;   gcodeYoffset,0
;   gcodeZoffset,0
;   overrideMachineDefinition,0
;   machineTypeOverride,0
;   strokeXoverride,200
;   strokeYoverride,200
;   strokeZoverride,200
;   originOffsetXoverride,0
;   originOffsetYoverride,0
;   originOffsetZoverride,0
;   homeXdirOverride,-1
;   homeYdirOverride,-1
;   homeZdirOverride,-1
;   flipXoverride,1
;   flipYoverride,-1
;   flipZoverride,1
;   toolheadOffsets,0,0|0,0|0,0|0,0|0,0|0,0
;   overrideFirmwareConfiguration,0
;   firmwareTypeOverride,RepRap (Marlin/Repetier/Sprinter)
;   GPXconfigOverride,r2
;   baudRateOverride,115200
;   overridePrinterModels,0
;   printerModelsOverride
;   startingGcode,; Duplicator 6 / Monoprice Maker Ultimate Start Script V3,M107 ; start with the fan off,G28 ; home,G29 ; Auto Bed Level,G1 Z15 F3600 ; move the platform 15mm down from home,G0 X0 Y0 ; Rapid move X0 Y0,G92 E0 ; zero the extruded length,G1 X8.0 Z0.0 F3600,G1 X10.0 Z0.2 F3600,G1 X50 Z0.4 E9.0 F1000 ; prime,G1 X100.0 E33 F1000 ; prime,G1 X110 Z0.2 F9000 ; pull away wipe,G1 X120 F9000     ; finish wipe,G1 Z2 F1000 ; lift head before first move,G92 E0 ; zero extruder again,M117 Printing...
;   layerChangeGcode,
;   retractionGcode,
;   toolChangeGcode,
;   endingGcode,M107 ; fan off,M104 S0,M140 S0,G91 ; relative movements,G1 Z30 F3600,G90 : back to absolute movement,G92 E1,G1 E-1 F300,G28 X0 Y0,M84
;   exportFileFormat,gcode
;   celebration,0
;   celebrationSong,Funky Town
;   postProcessing,
;   defaultSpeed,3000
;   outlineUnderspeed,0.5
;   solidInfillUnderspeed,0.8
;   supportUnderspeed,0.8
;   rapidXYspeed,4800
;   rapidZspeed,1002
;   minBridgingArea,50
;   bridgingExtraInflation,0
;   bridgingExtrusionMultiplier,1
;   bridgingSpeedMultiplier,1
;   useFixedBridgingAngle,0
;   fixedBridgingAngle,0
;   applyBridgingToPerimeters,0
;   filamentDiameters,1.75|1.75|1.75|1.75|1.75|1.75
;   filamentPricesPerKg,30|46|46|46|46|46
;   filamentDensities,1.25|1.25|1.25|1.25|1.25|1.25
;   useMinPrintHeight,0
;   minPrintHeight,0
;   useMaxPrintHeight,0
;   maxPrintHeight,0
;   useDiaphragm,0
;   diaphragmLayerInterval,20
;   robustSlicing,1
;   mergeAllIntoSolid,0
;   onlyRetractWhenCrossingOutline,1
;   retractBetweenLayers,1
;   useRetractionMinTravel,0
;   retractionMinTravel,3
;   retractWhileWiping,0
;   onlyWipeOutlines,1
;   avoidCrossingOutline,0
;   maxMovementDetourFactor,3
;   toolChangeRetractionDistance,12
;   toolChangeExtraRestartDistance,-0.5
;   toolChangeRetractionSpeed,600
;   externalThinWallType,0
;   internalThinWallType,2
;   thinWallAllowedOverlapPercentage,10
;   singleExtrusionMinLength,1
;   singleExtrusionMinPrintingWidthPercentage,50
;   singleExtrusionMaxPrintingWidthPercentage,200
;   singleExtrusionEndpointExtension,0.2
;   horizontalSizeCompensation,0
G90
M82
M106 S0
M140 S60
M190 S60
M104 S210 T0
M109 S210 T0
; Duplicator 6 / Monoprice Maker Ultimate Start Script V3
M107 ; start with the fan off
G28 ; home
G29 ; Auto Bed Level
G1 Z15 F3600 ; move the platform 15mm down from home
G0 X0 Y0 ; Rapid move X0 Y0
G92 E0 ; zero the extruded length
G1 X8.0 Z0.0 F3600
G1 X10.0 Z0.2 F3600
G1 X50 Z0.4 E9.0 F1000 ; prime
G1 X100.0 E33 F1000 ; prime
G1 X110 Z0.2 F9000 ; pull away wipe
G1 X120 F9000     ; finish wipe
G1 Z2 F1000 ; lift head before first move
G92 E0 ; zero extruder again
M117 Printing...
; process Process1
; layer 1, Z = 0.150
T0
; feature skirt
; tool H0.150 W0.480
G1 Z0.150 F1002
G1 X28.970 Y78.780 F4800
G92 E0.0000
G1 X171.030 Y78.780 E4.2524 F1500
G1 X173.795 Y81.545 E4.3695
G1 X173.795 Y116.439 E5.4140
G1 X173.076 Y118.174 E5.4702
G1 X171.674 Y119.576 E5.5296
G1 X169.939 Y120.295 E5.5858
G1 X30.061 Y120.295 E9.7729
G1 X28.327 Y119.577 E9.8291
G1 X26.924 Y118.174 E9.8885
G1 X26.205 Y116.439 E9.9447
G1 X26.205 Y81.545 E10.9893
G1 X28.970 Y78.780 E11.1063
G1 X29.169 Y79.260 F4800
G92 E0.0000
G1 X170.831 Y79.260 E4.2405 F1500
G1 X173.315 Y81.744 E4.3457
G1 X173.315 Y116.343 E5.3814
G1 X172.669 Y117.902 E5.4319
G1 X171.402 Y119.169 E5.4856
G1 X169.843 Y119.815 E5.5361
G1 X30.157 Y119.815 E9.7174
G1 X28.598 Y119.170 E9.7679
G1 X27.331 Y117.902 E9.8216
G1 X26.685 Y116.343 E9.8721
G1 X26.685 Y81.744 E10.9078
G1 X29.169 Y79.260 E11.0130
; feature inner perimeter
G1 X32.125 Y84.700 F4800
G92 E0.0000
G1 X167.875 Y84.700 E4.0636 F1125
G1 X167.875 Y114.375 E4.9519
G1 X32.125 Y114.375 E9.0154
G1 X32.125 Y84.700 E9.9037
G1 X31.645 Y84.220 F4800
G92 E0.0000
G1 X168.355 Y84.220 E4.0923 F1125
G1 X168.355 Y114.855 E5.0093
G1 X31.645 Y114.855 E9.1016
G1 X31.645 Y84.220 E10.0187
; feature outer perimeter
G1 X31.165 Y83.740 F4800
G92 E0.0000
G1 X168.835 Y83.740 E4.1210 F750
G1 X168.835 Y115.335 E5.0668
G1 X31.165 Y115.335 E9.1878
G1 X31.165 Y83.740 E10.1336
G1 X31.665 Y83.740 F750
G1 X47.301 Y94.956 F4800
G92 E0.0000
G1 X47.500 Y95.028 E0.0064 F750
G1 X47.594 Y95.105 E0.0100
G1 X47.649 Y95.240 E0.0144
G1 X47.659 Y95.310 E0.0165
G1 X47.656 Y95.530 E0.0230
G1 X47.643 Y95.605 E0.0253
G1 X47.572 Y95.746 E0.0300
G1 X47.495 Y95.791 E0.0327
G1 X47.457 Y95.797 E0.0339
G1 X47.449 Y95.797 E0.0341
G1 X47.401 Y95.604 E0.0401
G1 X47.301 Y94.956 E0.0597
G1 X47.500 Y95.028 F750
G1 X47.594 Y95.105
G1 X47.649 Y95.240
G1 X47.652 Y95.261
G1 X46.559 Y99.420 F4800
G92 E0.0000
G1 X46.559 Y100.391 E0.0291 F750
G1 X46.362 Y100.297 E0.0356
G1 X46.240 Y100.186 E0.0405
G1 X46.180 Y100.066 E0.0445
G1 X46.160 Y99.918 E0.0490
G1 X46.172 Y99.814 E0.0522
G1 X46.197 Y99.719 E0.0551
G1 X46.246 Y99.635 E0.0580
G1 X46.310 Y99.557 E0.0610
G1 X46.415 Y99.485 E0.0648
G1 X46.532 Y99.427 E0.0688
G1 X46.559 Y99.420 E0.0696
G1 X46.559 Y99.920 F750
; feature inner perimeter
G1 X44.415 Y97.024 F4800
G92 E0.0000
G1 X42.774 Y96.693 E0.0501 F1125
G1 X42.017 Y98.494 E0.1086
G1 X41.815 Y99.552 E0.1408
G1 X41.829 Y100.609 E0.1725
G1 X42.074 Y101.681 E0.2054
G1 X42.513 Y102.642 E0.2370
G1 X43.154 Y103.509 E0.2693
G1 X43.962 Y104.229 E0.3017
G1 X44.920 Y104.771 E0.3346
G1 X45.925 Y105.094 E0.3662
G1 X46.998 Y105.206 E0.3985
G1 X48.071 Y105.095 E0.4308
G1 X49.099 Y104.765 E0.4631
G1 X50.036 Y104.230 E0.4954
G1 X50.843 Y103.513 E0.5277
G1 X51.484 Y102.645 E0.5600
G1 X51.933 Y101.664 E0.5924
G1 X52.171 Y100.611 E0.6247
G1 X52.185 Y99.532 E0.6570
G1 X51.977 Y98.473 E0.6893
G1 X51.221 Y96.692 E0.7472
G1 X49.408 Y97.061 E0.8026
G1 X49.408 Y96.076 E0.8321
G1 X49.443 Y95.926 E0.8367
G1 X49.469 Y95.472 E0.8503
G1 X49.447 Y95.154 E0.8598
G1 X50.394 Y95.154 E0.8882
G1 X50.394 Y89.917 E1.0449
G1 X47.572 Y89.917 E1.1294
G1 X47.572 Y91.097 E1.1647
G1 X44.415 Y91.097 E1.2592
G1 X44.415 Y93.970 E1.3452
G1 X44.642 Y93.970 E1.3520
G1 X44.445 Y94.415 E1.3666
G1 X44.374 Y94.797 E1.3782
G1 X44.354 Y95.136 E1.3884
G1 X44.391 Y95.577 E1.4016
G1 X44.415 Y95.667 E1.4044
G1 X44.415 Y97.024 E1.4450
G1 X44.895 Y98.317 F4800
G92 E0.0000
G1 X45.533 Y98.319 E0.0191 F1125
G1 X45.147 Y98.821 E0.0381
G1 X44.958 Y99.170 E0.0499
G1 X44.867 Y99.551 E0.0617
G1 X44.834 Y99.911 E0.0725
G1 X44.854 Y100.206 E0.0814
G1 X44.910 Y100.512 E0.0907
G1 X45.029 Y100.803 E0.1001
G1 X45.195 Y101.095 E0.1101
G1 X45.420 Y101.329 E0.1199
G1 X45.660 Y101.522 E0.1291
G1 X45.933 Y101.658 E0.1382
G1 X46.998 Y102.040 E0.1721
G1 X47.029 Y101.788 E0.1797
G1 X47.282 Y101.771 E0.1873
G1 X47.672 Y101.694 E0.1992
G1 X48.039 Y101.524 E0.2113
G1 X48.401 Y101.284 E0.2243
G1 X48.658 Y100.971 E0.2364
G1 X48.853 Y100.636 E0.2480
G1 X48.951 Y100.264 E0.2595
G1 X48.991 Y99.895 E0.2706
G1 X48.951 Y99.519 E0.2819
G1 X48.853 Y99.141 E0.2936
G1 X48.741 Y98.949 E0.3003
G1 X48.921 Y98.570 E0.3128
G1 X48.995 Y98.123 E0.3264
G1 X48.943 Y97.773 E0.3370
G1 X48.928 Y97.737 E0.3382
G1 X48.928 Y96.440 E0.3770
G1 X48.829 Y96.440 E0.3799
G1 X48.967 Y95.857 E0.3979
G1 X48.988 Y95.476 E0.4093
G1 X48.960 Y95.069 E0.4215
G1 X48.862 Y94.674 E0.4337
G1 X49.914 Y94.674 E0.4652
G1 X49.914 Y90.397 E0.5932
G1 X48.052 Y90.397 E0.6490
G1 X48.052 Y91.577 E0.6843
G1 X44.895 Y91.577 E0.7788
G1 X44.895 Y93.490 E0.8360
G1 X45.803 Y93.490 E0.8632
G1 X45.216 Y93.985 E0.8862
G1 X45.032 Y94.274 E0.8964
G1 X44.907 Y94.558 E0.9057
G1 X44.851 Y94.856 E0.9148
G1 X44.835 Y95.130 E0.9230
G1 X44.865 Y95.493 E0.9339
G1 X44.895 Y95.603 E0.9373
G1 X44.895 Y98.317 E1.0186
; feature outer perimeter
G1 X45.375 Y97.838 F4800
G92 E0.0000
G1 X47.091 Y97.844 E0.0514 F750
G1 X47.195 Y97.854 E0.0545
G1 X47.407 Y97.901 E0.0610
G1 X47.488 Y97.939 E0.0637
G1 X47.509 Y97.956 E0.0645
G1 X47.528 Y97.977 E0.0653
G1 X47.560 Y98.036 E0.0673
G1 X47.571 Y98.102 E0.0693
G1 X47.566 Y98.143 E0.0706
G1 X47.557 Y98.188 E0.0719
G1 X47.414 Y98.506 E0.0824
G1 X47.198 Y98.463 E0.0890
G1 X46.889 Y98.443 E0.0982
G1 X46.589 Y98.463 E0.1073
G1 X46.288 Y98.524 E0.1164
G1 X46.009 Y98.656 E0.1257
G1 X45.739 Y98.838 E0.1354
G1 X45.550 Y99.083 E0.1447
G1 X45.410 Y99.343 E0.1535
G1 X45.342 Y99.628 E0.1623
G1 X45.316 Y99.916 E0.1709
G1 X45.331 Y100.147 E0.1779
G1 X45.374 Y100.376 E0.1849
G1 X45.462 Y100.593 E0.1919
G1 X45.583 Y100.805 E0.1992
G1 X45.745 Y100.974 E0.2062
G1 X45.921 Y101.115 E0.2129
G1 X46.122 Y101.216 E0.2197
G1 X46.595 Y101.386 E0.2347
G1 X46.605 Y101.307 E0.2371
G1 X46.922 Y101.314 E0.2466
G1 X47.219 Y101.294 E0.2555
G1 X47.522 Y101.234 E0.2648
G1 X47.804 Y101.104 E0.2741
G1 X48.075 Y100.924 E0.2838
G1 X48.263 Y100.696 E0.2926
G1 X48.405 Y100.451 E0.3011
G1 X48.478 Y100.177 E0.3096
G1 X48.508 Y99.894 E0.3181
G1 X48.478 Y99.606 E0.3268
G1 X48.405 Y99.325 E0.3355
G1 X48.259 Y99.074 E0.3441
G1 X48.068 Y98.840 E0.3532
G1 X47.943 Y98.757 E0.3577
G1 X48.248 Y98.870 E0.3674
G1 X48.459 Y98.425 E0.3822
G1 X48.510 Y98.119 E0.3915
G1 X48.477 Y97.903 E0.3980
G1 X48.432 Y97.795 E0.4015
G1 X48.448 Y97.795 E0.4020
G1 X48.448 Y96.920 E0.4282
G1 X45.543 Y96.920 E0.5151
G1 X45.848 Y96.780 E0.5252
G1 X45.965 Y96.748 E0.5288
G1 X46.321 Y96.726 E0.5395
G1 X47.503 Y96.721 E0.5749
G1 X47.741 Y96.698 E0.5820
G1 X47.946 Y96.633 E0.5885
G1 X48.060 Y96.570 E0.5924
G1 X48.237 Y96.417 E0.5994
G1 X48.365 Y96.217 E0.6065
G1 X48.417 Y96.095 E0.6105
G1 X48.490 Y95.788 E0.6199
G1 X48.507 Y95.479 E0.6292
G1 X48.484 Y95.144 E0.6392
G1 X48.401 Y94.810 E0.6495
G1 X48.272 Y94.543 E0.6584
G1 X48.069 Y94.319 E0.6674
G1 X47.930 Y94.229 E0.6724
G1 X47.793 Y94.158 E0.6770
G1 X47.268 Y93.999 E0.6934
G1 X47.190 Y94.576 E0.7108
G1 X47.035 Y94.331 E0.7195
G1 X46.943 Y94.236 E0.7235
G1 X46.759 Y94.107 E0.7302
G1 X46.541 Y94.023 E0.7372
G1 X46.417 Y94.003 E0.7410
G1 X46.294 Y93.994 E0.7447
G1 X46.102 Y94.016 E0.7504
G1 X45.911 Y94.068 E0.7564
G1 X45.740 Y94.171 E0.7623
G1 X45.581 Y94.305 E0.7686
G1 X45.457 Y94.501 E0.7755
G1 X45.368 Y94.701 E0.7821
G1 X45.329 Y94.914 E0.7885
G1 X45.316 Y95.124 E0.7948
G1 X45.340 Y95.409 E0.8034
G1 X45.417 Y95.692 E0.8122
G1 X45.541 Y95.935 E0.8204
G1 X45.375 Y95.997 E0.8257
G1 X45.375 Y97.838 E0.8808
G1 X45.875 Y97.840 F750
; feature inner perimeter
G1 X44.220 Y97.474 F4800
G92 E0.0000
G1 X43.064 Y97.241 E0.0353 F1125
G1 X42.479 Y98.634 E0.0805
G1 X42.295 Y99.594 E0.1098
G1 X42.308 Y100.552 E0.1384
G1 X42.531 Y101.527 E0.1684
G1 X42.929 Y102.397 E0.1970
G1 X43.511 Y103.184 E0.2263
G1 X44.243 Y103.836 E0.2557
G1 X45.114 Y104.329 E0.2856
G1 X46.024 Y104.622 E0.3142
G1 X46.998 Y104.724 E0.3435
G1 X47.972 Y104.623 E0.3729
G1 X48.904 Y104.323 E0.4022
G1 X49.754 Y103.838 E0.4315
G1 X50.487 Y103.187 E0.4608
G1 X51.069 Y102.400 E0.4901
G1 X51.476 Y101.510 E0.5194
G1 X51.691 Y100.554 E0.5487
G1 X51.705 Y99.575 E0.5780
G1 X51.516 Y98.614 E0.6074
G1 X50.933 Y97.241 E0.6520
G1 X49.780 Y97.475 E0.6872
G1 X49.780 Y99.960 E0.7616
G1 X49.706 Y100.618 E0.7814
G1 X49.501 Y101.204 E0.8000
G1 X49.170 Y101.730 E0.8186
G1 X48.730 Y102.170 E0.8372
G1 X48.204 Y102.501 E0.8558
G1 X47.618 Y102.706 E0.8745
G1 X47.000 Y102.775 E0.8931
G1 X46.382 Y102.706 E0.9117
G1 X45.796 Y102.501 E0.9303
G1 X45.270 Y102.170 E0.9489
G1 X44.830 Y101.730 E0.9675
G1 X44.499 Y101.204 E0.9861
G1 X44.294 Y100.618 E1.0047
G1 X44.220 Y99.960 E1.0245
G1 X44.220 Y97.474 E1.0989
; feature outer perimeter
G1 X43.740 Y97.867 F4800
G92 E0.0000
G1 X43.355 Y97.789 E0.0118 F750
G1 X42.941 Y98.774 E0.0437
G1 X42.776 Y99.636 E0.0700
G1 X42.788 Y100.495 E0.0957
G1 X42.988 Y101.372 E0.1226
G1 X43.345 Y102.152 E0.1483
G1 X43.867 Y102.859 E0.1746
G1 X44.524 Y103.444 E0.2010
G1 X45.307 Y103.887 E0.2279
G1 X46.124 Y104.150 E0.2536
G1 X46.998 Y104.241 E0.2799
G1 X47.873 Y104.151 E0.3062
